X:232
T: AUF DIESER WELT HAB ICH KEIN FREUD
N: Z0231
O: Europa, Mitteleuropa, Deutschland
R: Soldaten - Lied, Abschieds - Lied
M: 3/4
L: 1/16
K: C
C4 | C2B,A,G,4A,4 | G,2G,F,E,2
G,2C2D2 | E6E2D2DE | C4z2
E2B,2C2 | A,4D4B,CA,B, | G,6
G,2C2D2 | E6E2D2DE | C4z4

@@@ Tune index: 9990
